X: 296
T:O admirabile commercium - Verbum caro factum est - Magnum nomen
N: Derived from Jos2608-O_admirabile_commercium__Verbum_caro_factum_est.krn
C: Josquin des Prez
%%abc-version 2.0
%%abcx-abcm2ps-target-version 5.9.1 (29 Sep 2008)
%%abc-creator hum2abc beta
%%abcx-conversion-date 2019/02/12 16:15:53
%%abc-edited-by Victoria Chang
%%abc-edited-by Jesse Rodin; Victoria Chang 2011/11/20
%%abcx-initial-encoding-date 2011/11/20/
%%humdrum-veritas 3823070400
%%humdrum-veritas-data 3040054952
%%linebreak <none>
%%barnumbers 0
L: 1/4
M: 9/2
Q: 1/2=120
V: 1 clef=treble
V: 2 clef=treble
V: 3 clef=treble
V: 4 clef=treble-8
V: 5 clef=bass
K: C
[V:1] c6-c6-c6 | 
[V:2] z6z6z6 | 
[V:3] C6-C6-C6 | 
[V:4] c6-c6A6- | 
[V:5] C,6-C,6F,6 | 
[V:1] A6-A6G6- | 
[V:2] z6z6z6 | 
[V:3] F6-F6E6 | 
[V:4] A6c6-c6 | 
[V:5] F,6-F,6C,6- | 
[V:1] G6c4c2c2e4 | 
[V:2] z6z6z6 | 
[V:3] z2z2E3FG2A3GG2c2- | 
[V:4] c6e6c6 | 
[V:5] C,6-C,6-C,6 | 
[V:1] d2d3cd2c2f3ee3d | 
[V:2] z6z6z6 | 
[V:3] cBB2G2A4F2G3ABc | 
[V:4] d4e2f3ed2c2g4 | 
[V:5] G,6z6z6 | 
[V:1] d2e3dc4B2c4z2 | 
[V:2] z6z6z6 | 
[V:3] A2G2E2G4F2G6 | 
[V:4] f2g2c4d4c6- | 
[V:5] z6z6z6 | 
[V:1] c4e4d3cB2A2d2 | 
[V:2] z6z6z6 | 
[V:3] z2z2G2G6F6 | 
[V:4] c6G6d6 | 
[V:5] z6z6z6 | 
[V:1] B2d3ef2g2e2d2g3f | 
[V:2] z6z6z6 | 
[V:3] G4G2A2B2c2B2G2c2- | 
[V:4] G6z2G2A2B2c4 | 
[V:5] z6z6z6 | 
[V:1] ede2c2B2d3cc4B2 | 
[V:2] z6z6z6 | 
[V:3] cBAGA2G2F2G2E2D4 | 
[V:4] c4c2G2B4c2G4 | 
[V:5] z6z6z6 | 
[V:1] c6z6c6 | 
[V:2] z6z6z6 | 
[V:3] C6-C6-C6 | 
[V:4] z2z2G2A4A2F2A3B | 
[V:5] C,6F,6-F,6 | 
[V:1] !accent!c4!accent!e4!accent!e2e2e2e3d | 
[V:2] G6-G6-G6 | 
[V:3] E6-E6-E6 | 
[V:4] c6-c6c6 | 
[V:5] C,6-C,6C,6 | 
[V:1] d4z2g3fe2!accent!d3!accent!B3 | 
[V:2] B6-B6-B6 | 
[V:3] G6-G6-G6 | 
[V:4] d6B4c2d6 | 
[V:5] G,6-G,6G,6 | 
[V:1] A4A2A2A4A2A4 | 
[V:2] d6-d6-d6 | 
[V:3] F6-F6-F6 | 
[V:4] d6-d6d6 | 
[V:5] D,6-D,6D,6 | 
[V:1] A6z6A6 | 
[V:2] c6-c6-c6 | 
[V:3] E6F6-F6 | 
[V:4] e6c6z2z2!accent!c2 | 
[V:5] A,6-A,6-A,6 | 
[V:1] d6-d4B2c2G4 | 
[V:2] B6-B6e6- | 
[V:3] G6-G6-G6 | 
[V:4] !accent!d6-d6e6 | 
[V:5] G,6-G,6C,6 | 
[V:1] c3de3fg4g2f2e2 | 
[V:2] e6-e6-e6 | 
[V:3] G6-G6G6 | 
[V:4] c6c6-c6 | 
[V:5] C,6-C,6-C,6 | 
[V:1] dcB2B3AA6z2e2 | 
[V:2] d6c6-c6 | 
[V:3] G4G2E2A3GF2E4 | 
[V:4] d6z6z6 | 
[V:5] G,6A,6-A,6 | 
[V:1] f6d4B2c2f3e | 
[V:2] d6-d6-d6 | 
[V:3] D6-D6z6 | 
[V:4] a6f4d4d4 | 
[V:5] D,6D,4G,4F,4 | 
[V:1] e6-e4z2e6 | 
[V:2] z6z6z6 | 
[V:3] G6G4A2c2B2A2 | 
[V:4] c4c2G2c3BA2G2A2 | 
[V:5] C,6-C,6z6 | 
[V:1] e3dc2B2A2d4c4 | 
[V:2] z6z6z6 | 
[V:3] G2A4G2F4E6 | 
[V:4] c6z2d4e4c2 | 
[V:5] C,4F,2G,2D,4A,6 | 
[V:1] B6-B4B2c2d2A2 | 
[V:2] d6d4e2g3fe2 | 
[V:3] G6D4G3AB2c2 | 
[V:4] d2B2d2d2g3fe2d2c2- | 
[V:5] G,6-G,6z6 | 
[V:1] d2c2A2B2A3GG4^F2 | 
[V:2] d2e3dd2c3BG2A3G | 
[V:3] G2E2F2G2E3DD4C2 | 
[V:4] cBc2d2B2c2G2B2A4 | 
[V:5] z6z6z6 | 
[V:1] G6z6d4c2 | 
[V:2] B6z6z6 | 
[V:3] D6G6G6 | 
[V:4] G6d4d2B4c2 | 
[V:5] G,6-G,6-G,6- | 
[V:1] B4c2d2e3dd4z2 | 
[V:2] d4c2B4c2d4c2 | 
[V:3] G6-G6D4E2 | 
[V:4] d6z6B4c2 | 
[V:5] G,6-G,6G,6 | 
[V:1] d3ef2g3ff2g2e3d | 
[V:2] B2d3cB2A4G6 | 
[V:3] G4F2G2A2D2z2G2A2 | 
[V:4] !accent!d4!accent!d2!accent!G2!accent!d4e2c4 | 
[V:5] !accent!G,4!accent!D,2!accent!G,2!accent!D,4z6 | 
[V:1] d4^c2d2z2z2!accent!d4=c2 | 
[V:2] z6!accent!d4c2B4c2 | 
[V:3] !accent!F2!accent!E4D4D2D3EF2 | 
[V:4] d2A4B4A2B2G2z2 | 
[V:5] z6G,6-G,4A,2 | 
[V:1] B2A3GG2A2B2G2A3G | 
[V:2] d4c2B2A3GG4^F2 | 
[V:3] G2A2F2D2z4z6 | 
[V:4] d6d4B2d3cc2 | 
[V:5] G,2D,2F,2G,2D,2G,2B,2A,4 | 
[V:1] B6c6B6 | 
[V:2] G6z6z6 | 
[V:3] G4F2E4F2G4F2 | 
[V:4] d4d2c2A2c2d2d3c | 
[V:5] G,6A,6G,4D,2 | 
[V:1] z6z2z2d2e2c2e2- | 
[V:2] z6z6z6 | 
[V:3] E2D4C3B,B,2C6 | 
[V:4] B2A4G3FF2G4c2- | 
[V:5] G,2F,4E,2D,4C,6- | 
[V:1] e2d3cB2e2d2e2g3f | 
[V:2] z6z6z6 | 
[V:3] z6G4F2E4F2 | 
[V:4] c2d4d2c2ABc2e2d2 | 
[V:5] C,2G,4G,2E,C,D,2C,4D,2 | 
[V:1] e2Bcd2e2d3cc4B2 | 
[V:2] z6z6z6 | 
[V:3] G4F2G4E2C2D4 | 
[V:4] z2d2B2c2d2e3fg4 | 
[V:5] E,F,G,2D,2C,2B,,2C,4G,4 | 
[V:1] c6-c6-c6 ||  
[V:2] G6-G6-G6 ||  
[V:3] C6-C6-C6 ||  
[V:4] g6-g6-g6 ||  
[V:5] C,6-C,6-C,6 ||  
[V:1] [M:3/1]c4c4c4 | 
[V:2] [M:3/1]z12 | 
[V:3] [M:3/1]C4E4F4 | 
[V:4] [M:3/1]c4c2B2A4 | 
[V:5] [M:3/1]z12 | 
[V:1] B4d8 | 
[V:2] z12 | 
[V:3] G4B6A2 | 
[V:4] G8G4 | 
[V:5] z12 | 
[V:1] c4f6e2 | 
[V:2] z12 | 
[V:3] A8A3B | 
[V:4] A4d8 | 
[V:5] z12 | 
[V:1] e4d4e4- | 
[V:2] z12 | 
[V:3] c2c3BB2A2G2 | 
[V:4] c4G4z2c2- | 
[V:5] z12 | 
[V:1] e2f3ed4^c2 | 
[V:2] z12 | 
[V:3] !breath!A4D4E4 | 
[V:4] c2d4B2A4 | 
[V:5] z12 | 
[V:1] d8B4 | 
[V:2] z12 | 
[V:3] D4G8 | 
[V:4] B3GG8 | 
[V:5] z12 | 
[V:1] d4f4e2e2- | 
[V:2] z12 | 
[V:3] B4A4G4 | 
[V:4] G4d4e2c2- | 
[V:5] z12 | 
[V:1] edc2d2e2c2B2- | 
[V:2] z12 | 
[V:3] c4B2G2A3G | 
[V:4] cBA2G2c4d2 | 
[V:5] z12 | 
[V:1] BAG4c4B2 | 
[V:2] z12 | 
[V:3] G3FE2G4F2 | 
[V:4] e3fg2e2d4 | 
[V:5] z12 | 
[V:1] c4z4e4 | 
[V:2] z12 | 
[V:3] G4E2F2G4 | 
[V:4] c4G2c4B2 | 
[V:5] C,8z4 | 
[V:1] e8d3c | 
[V:2] z12 | 
[V:3] G8A4- | 
[V:4] G8D4 | 
[V:5] C,4E,2G,2F,2E,2 | 
[V:1] c2A2B6d2- | 
[V:2] z12 | 
[V:3] A4G8 | 
[V:4] z4z4G4 | 
[V:5] F,4G,4G,2z2 | 
[V:1] dcB2A2A3GG2 | 
[V:2] z12 | 
[V:3] G4E8 | 
[V:4] B2d2c2B2c4 | 
[V:5] G,4A,2G,F,E,4 | 
[V:1] F3GA6c2 | 
[V:2] z12 | 
[V:3] z4z4C4 | 
[V:4] d4d4z4 | 
[V:5] D,4F,2G,2A,4 | 
[V:1] B2G2A2B2A3G | 
[V:2] z12 | 
[V:3] E2G2F2E2F4 | 
[V:4] B3cd2B2c4 | 
[V:5] G,2F,E,D,2G,2A,4 | 
[V:1] B4z4G4 | 
[V:2] z12 | 
[V:3] G4G4z2D2 | 
[V:4] d8B4 | 
[V:5] G,12 | 
[V:1] B2d2c2B2c4 | 
[V:2] z12 | 
[V:3] G3FE2D2E4 | 
[V:4] G4A8 | 
[V:5] z12 | 
[V:1] d4d4z4 | 
[V:2] z4z4G4 | 
[V:3] D4G8 | 
[V:4] B4G8 | 
[V:5] z12 | 
[V:1] d4e6dc | 
[V:2] B2d2c2B2c4 | 
[V:3] z4A6G2 | 
[V:4] z12 | 
[V:5] z12 | 
[V:1] B8B4 | 
[V:2] d8z2d2 | 
[V:3] G8G2F2 | 
[V:4] d8d4 | 
[V:5] G,12- | 
[V:1] G4G6A2 | 
[V:2] d4e4g3f | 
[V:3] D4C4E2F2 | 
[V:4] B4c8 | 
[V:5] G,4C,8 | 
[V:1] B4c8 | 
[V:2] e2d2e8 | 
[V:3] G12- | 
[V:4] z4c8 | 
[V:5] z4C,8 | 
[V:1] d4e6d2 | 
[V:2] d4c8 | 
[V:3] G12 | 
[V:4] z4c8 | 
[V:5] B,,4C,8 | 
[V:1] d4z4g4 | 
[V:2] B8z4 | 
[V:3] z4z4G4 | 
[V:4] d8B4 | 
[V:5] G,12 | 
[V:1] g3fe2d2e4 | 
[V:2] z12 | 
[V:3] G2A2c3BA2G2 | 
[V:4] e8A4 | 
[V:5] C8C3B, | 
[V:1] c2f3ee4d2 | 
[V:2] z12 | 
[V:3] A4E2G2F4 | 
[V:4] z12 | 
[V:5] A,2D,2E,2C,2D,4 | 
[V:1] e8z4 | 
[V:2] B4B2B2B2B2 | 
[V:3] E4z2E2E2E2 | 
[V:4] z12 | 
[V:5] z4E,8 | 
[V:1] e4f2e3dd2 | 
[V:2] c3BA2G2A4 | 
[V:3] E2C2D2E2F4 | 
[V:4] z12 | 
[V:5] C,4z4z4 | 
[V:1] e3dcBc2B2e2 | 
[V:2] B4z4z4 | 
[V:3] E4A3GG4 | 
[V:4] z12 | 
[V:5] E,4F,4G,3F,/E,/ | 
[V:1] f2e3dd4^c2 | 
[V:2] z12 | 
[V:3] A3GF2D2E4 | 
[V:4] z12 | 
[V:5] D,2C,2D,4A,4 | 
[V:1] d4z4[M:3/1](3:2:2B4A2 | 
[V:2] [M:3/1](3:2:6d4d2d4e2g4f2 | 
[V:3] D4[M:3/1](3:2:4G4G2G4A2 | 
[V:4] z12 | 
[V:5] B,4G,4G,4 | 
[V:1] [M:9/2]A4d4^c4d4z2 | 
[V:2] [M:9/2]e4d2e2e4d4z2 | 
[V:3] [M:9/2]c4B2A4A2D4D2 | 
[V:4] [M:9/2]z18 | 
[V:5] [M:9/2]z18 | 
[V:1] B4c2d4c2B2A4 | 
[V:2] d4c2B4c2d4c2 | 
[V:3] G4z2G4E2D2F4 | 
[V:4] z18 | 
[V:5] z18 | 
[V:1] G4E2D4z2d4d2 | 
[V:2] B4G2A2A4G6 | 
[V:3] G2E2G4^F4G4=F2 | 
[V:4] z18 | 
[V:5] z18 | 
[V:1] e2d3cc4B2c4z2 | 
[V:2] z6z6z6 | 
[V:3] G4E2C2D4C4z2 | 
[V:4] z6z6[M:9/2]c4d2 | 
[V:5] z18 | 
[V:1] c6d6e4c2 | 
[V:2] G4A2B4B2c4c2 | 
[V:3] C6G,6G4F2 | 
[V:4] e4f2d4d2c4A2 | 
[V:5] z18 | 
[V:1] d4B2A2c2B2G2A3G | 
[V:2] B4B2c2A3GG4^F2 | 
[V:3] G4F2D2E3DD4C2 | 
[V:4] G4d4c2d2B2A4 | 
[V:5] z18 | 
[V:1] B4z2B4c2d4d2 | 
[V:2] G6z6z6 | 
[V:3] D4z2G4A2B4B2 | 
[V:4] G4z2G6-G6 | 
[V:5] z18 | 
[V:1] e2e4d4e4c2d2 | 
[V:2] z6z6z6 | 
[V:3] c4B2B4B2c2A3G | 
[V:4] z6G6A4B2 | 
[V:5] z18 | 
[V:1] B2A4G4z4d4 | 
[V:2] z6z6B4A2 | 
[V:3] G4^F2G6G6 | 
[V:4] G2d4G4z2z6 | 
[V:5] z6z6[M:9/2]G,4F,2 | 
[V:1] e4d2d4g4f2d2- | 
[V:2] G6B4c2d4d2 | 
[V:3] z6z6z6 | 
[V:4] z6z6z6 | 
[V:5] E,4F,2G,4E,2D,4D,2 | 
[V:1] d2^c3Bd6d6 | 
[V:2] e4e2d4d2B4c2 | 
[V:3] z6z6z6 | 
[V:4] z6z6d6 | 
[V:5] A,2A,4D,4z2G,4A,2 | 
[V:1] z6z6z6 | 
[V:2] d4d2e4e2d4c2 | 
[V:3] z6z6z6 | 
[V:4] d4B2A4c2d2e2f2 | 
[V:5] B,4B,2C4C2B,2A,4 | 
[V:1] z6z6d6 | 
[V:2] B2A3GG4^F2G6 | 
[V:3] z6z6z6 | 
[V:4] g2d4B2c4d2B3A | 
[V:5] G,2F,2G,4A,4G,6 | 
[V:1] e4c2e4f2g4f2 | 
[V:2] z6z6z6 | 
[V:3] E4D2C4z2E4F2 | 
[V:4] c12c4d2 | 
[V:5] C,6-C,6-C,6 | 
[V:1] e2d2e2e2d3cc4B2 | 
[V:2] z6z6z6 | 
[V:3] G4G2A4A2G4F2 | 
[V:4] e4c4f2g2e2d4 | 
[V:5] z6z6z6 | 
[V:1] c4z2G4A2B3cd2 | 
[V:2] z6z6z6 | 
[V:3] G4G2E4F2G2A4 | 
[V:4] c4z2c4A2G4^F2 | 
[V:5] z6z6z6 | 
[V:1] B2c3de2d3cc4B2 | 
[V:2] z6z6z6 | 
[V:3] G4^F2G4=F2E2D4 | 
[V:4] G2A4G3AB2c2G4 | 
[V:5] z6z6z6 | 
[V:1] [M:3/1]c4c3BG2A2- | 
[V:2] [M:3/1]z12 | 
[V:3] [M:3/1]C4E3EE2E2 | 
[V:4] [M:3/1]z4c6c2- | 
[V:5] [M:3/1]C,4C,4C,4 | 
[V:1] ABc2d2f2e2g2- | 
[V:2] z12 | 
[V:3] F2G2A2F2G4 | 
[V:4] cde2f2d2e3d | 
[V:5] F,2E,2D,4C,4 | 
[V:1] gfe2d2c4B2 | 
[V:2] G12- | 
[V:3] E2G2F2E2D4 | 
[V:4] c4d2g6 | 
[V:5] C,4z2C,2G,4 | 
[V:1] c12 ||  
[V:2] G12 ||  
[V:3] C12 ||  
[V:4] e12 ||  
[V:5] C,12 ||  
[V:1] [M:6/1]z8G8d8 | 
[V:2] [M:6/1]z8z8z8 | 
[V:3] [M:6/1]C8G8G8 | 
[V:4] [M:6/1]z8z8z8 | 
[V:5] [M:6/1]z8z8z8 | 
[V:1] d4d4e4d4c4c4 | 
[V:2] z8z8z8 | 
[V:3] G6F2G4_B6A2A4 | 
[V:4] z8z8z8 | 
[V:5] z8z8z8 | 
[V:1] d4c4e8d4d4- | 
[V:2] z8G8-G8 | 
[V:3] F4A4G4c6B2B4- | 
[V:4] z8c8d8 | 
[V:5] z8C,8G,8- | 
[V:1] d4g8f2e2d8 | 
[V:2] d8-d8d8 | 
[V:3] B4B4G4G6FED4 | 
[V:4] d8-d8-d8 | 
[V:5] G,8G,8-G,8 | 
[V:1] z4G4d4d4e4d4 | 
[V:2] z8z8z8 | 
[V:3] C4G6F2G4G4_B4- | 
[V:4] z8z8z8 | 
[V:5] z8z8z8 | 
[V:1] c8_B8A4c4- | 
[V:2] z8z8z8 | 
[V:3] B2A2A8G4A8 | 
[V:4] z8z8z8 | 
[V:5] z8z8z8 | 
[V:1] c2d2e4e6d2d4f4 | 
[V:2] z8z8z8 | 
[V:3] F4G6F2F8F4 | 
[V:4] z8z8z8 | 
[V:5] z8z8z8 | 
[V:1] e4d4e2e3dc2B6A2 | 
[V:2] z8z8z8 | 
[V:3] G4F4C6E2D8 | 
[V:4] z8z8z8 | 
[V:5] z8z8z8 | 
[V:1] c4c4B2d3cBAG4B4 | 
[V:2] z8d12B4 | 
[V:3] C4E4D4G12 | 
[V:4] z8d8-d8 | 
[V:5] z8G,8-G,8 | 
[V:1] A4c4B4G4z2c4d2 | 
[V:2] c4e6dcB4A4c4- | 
[V:3] F4E4G8A8 | 
[V:4] c8d6e2f8 | 
[V:5] A,8G,8F,4F,4 | 
[V:1] f6e2e4c4d4g4- | 
[V:2] c4d4c4e6d2d4- | 
[V:3] A6B2c4c6B2B4 | 
[V:4] z4f4g4e4g6fe | 
[V:5] F,8C,8G,8 | 
[V:1] g2f2d4e8e8 | 
[V:2] d8z8z8 | 
[V:3] G4B4c4A4G2A2G2E2- | 
[V:4] d8z8z8 | 
[V:5] G,8z8z8 | 
[V:1] e4d2e2d2B4d3cc4B2 | 
[V:2] z8z8z8 | 
[V:3] E2G4E2G6F2G2E2D4 | 
[V:4] z8z8z8 | 
[V:5] z8z8z8 | 
[V:1] c8d4d6c2B2A2 | 
[V:2] G8-G8d8- | 
[V:3] C8B,6C2D4G4- | 
[V:4] e8d8-d8 | 
[V:5] C,8G,8-G,8 | 
[V:1] B8c4A4d4c4 | 
[V:2] d8z8z8 | 
[V:3] G2F2G4A4c6B2A4 | 
[V:4] d8z8z8 | 
[V:5] G,8z8z8 | 
[V:1] f4e2f2e2c4e3dd4^c2 | 
[V:2] z8z8z8 | 
[V:3] D2A4F2A6G2A2F2E4 | 
[V:4] z8z8z8 | 
[V:5] z8z8z8 | 
[V:1] d4B4c4d4A8 | 
[V:2] d8e4d6c2c4 | 
[V:3] D4G6F2G4E4A4- | 
[V:4] d8c4B4c6d2 | 
[V:5] G,8C,4G,4A,8 | 
[V:1] z8c8f6e2 | 
[V:2] B8A8-A8 | 
[V:3] A4^G4A8z4A4 | 
[V:4] e8c8d8 | 
[V:5] E,8F,8D,8 | 
[V:1] e4d2e2d2B3cd2e3dd2c2 | 
[V:2] z8z8z8 | 
[V:3] G6E2F3GA2_B2A2F4A2- | 
[V:4] z8z8z8 | 
[V:5] z8z8z8 | 
[V:1] d2B2A4G4B4c4A4- | 
[V:2] z8z8c8- | 
[V:3] AGG4^F2G8A8 | 
[V:4] z8z8c8 | 
[V:5] z8z8F,8- | 
[V:1] A4F6E2C4z8 | 
[V:2] c4d6c2c4c8 | 
[V:3] A8A8F8 | 
[V:4] f8-f8c8- | 
[V:5] F,4D,4F,4F,4F,8 | 
[V:1] G6A2B2c2d4e4f2d2- | 
[V:2] c4e6dcB4c4d4 | 
[V:3] E8G6F2E4D4 | 
[V:4] c8z8z8 | 
[V:5] C,8z8z8 | 
[V:1] d2g4^f2g6=f2e4c4 | 
[V:2] B2G2A4G8z8 | 
[V:3] G4D4B,4D6C2C4- | 
[V:4] z8d8e8 | 
[V:5] z8G,8C,4E,4 | 
[V:1] d6cde6dcd4e4 | 
[V:2] z8c2c2c2c2B4c4 | 
[V:3] C4B,4C8z8 | 
[V:4] f8e6f2g4e2c2 | 
[V:5] D,8C,8z4C,4 | 
[V:1] d4c4B8z8 | 
[V:2] B4c4d8e2e2e2c2 | 
[V:3] z8z8z8 | 
[V:4] d2g4^f2g2f2!breath!d4c2c2c2c2 | 
[V:5] G,4A,4G,8C,8 | 
[V:1] z8z8z8 | 
[V:2] d4e4d4c4B8 | 
[V:3] z8z8G8 | 
[V:4] B4c4B4c4d8 | 
[V:5] z4C,4G,4C,4G,8 | 
[V:1] z8z8z8 | 
[V:2] c2c2d2e2f4c4f4e2c2 | 
[V:3] G4A6F2G4A2B2c2A2 | 
[V:4] e2e2d2c2d4e4d4c4 | 
[V:5] z8z8z8 | 
[V:1] z8z8z8 | 
[V:2] d4B2d3cc4B2c8- | 
[V:3] G4G4F2E2D4C4z2G2 | 
[V:4] B8z8c2c2d2e2 | 
[V:5] G,8z4G,4A,4G,4 | 
[V:1] c12d4e6dc | 
[V:2] c8z8G8 | 
[V:3] A6G2A2c4B2c8 | 
[V:4] f4c4f2e2d4c8 | 
[V:5] F,6E,2F,2C,2G,4C,8 | 
[V:1] B4d6cBA4B4c4 | 
[V:2] G4z2G2B2B2c2c2G4z2G2 | 
[V:3] z8z8z8 | 
[V:4] z4d6e2f4d4e4- | 
[V:5] G,12F,4G,4C,4 | 
[V:1] d8z4d4d4d4 | 
[V:2] B3AB2c2A8z4z4 | 
[V:3] G6FEF8F4G4 | 
[V:4] e2d2d4d8d4z2d2 | 
[V:5] G,8D,12G,4 | 
[V:1] c4d8B4d6cB | 
[V:2] A2A2B2B2A4G4A4A4 | 
[V:3] C2F2D2E2F4D4D8 | 
[V:4] f2f2g2g2d6e2f2e2f2g2 | 
[V:5] A,4G,4F,4G,4D,8 | 
[V:1] c8z4d4c2e3dc2 | 
[V:2] A8-A8z8 | 
[V:3] z4E4F3GA2B2c2A3GA2 | 
[V:4] e8d2d2f2g2a4f2a2 | 
[V:5] A,8D,8z8 | 
[V:1] B2d4^c2d8d8 | 
[V:2] z8z8G2G2G2G2 | 
[V:3] B2A4G2A4F4D6G2- | 
[V:4] g2f2e4d8G8- | 
[V:5] z8z8z8 | 
[V:1] z8z4d4B4d4 | 
[V:2] B4d4c2B2A4G8 | 
[V:3] G4F2_B2A2G4^F2G8 | 
[V:4] G4d3ef2g2d4G4z4 | 
[V:5] z8z8G,8 | 
[V:1] e3fg4g3fe2dcB2d2c2e2- | 
[V:2] z8z8z8 | 
[V:3] E8C8z4G4 | 
[V:4] c2c2c2c2e4g6f2e2c2 | 
[V:5] C,8-C,8z4C,4- | 
[V:1] edc4B2c4z4!fermata!e8 | 
[V:2] z8z8!fermata!c8 | 
[V:3] G6F2E4z4!fermata!G8 | 
[V:4] e4d4c4z4!fermata!c8 | 
[V:5] C,4G,4C,4z4!fermata!C,8 | 
[V:1] g4f4!fermata!e8-e8 | 
[V:2] c4d4!fermata!G8-G8 | 
[V:3] G4D4!fermata!E8-E8 | 
[V:4] G4B4!fermata!c8-c8 | 
[V:5] E,4D,4!fermata!C,8-C,8 | 
[V:1] c4c4!fermata!d8-d8 | 
[V:2] G4c4!fermata!B8-B8 | 
[V:3] G4G4!fermata!B8-B8 | 
[V:4] e4e4!fermata!d8-d8 | 
[V:5] C4C4!fermata!G,8-G,8 | 
[V:1] d4d4c4A4c4c4 | 
[V:2] G4B4c4d4e4c4 | 
[V:3] G4G4E4F4E4F4 | 
[V:4] z8z8z8 | 
[V:5] G,4G,4A,4D,4A,4A,4 | 
[V:1] B4G4G2A2B4c4e4- | 
[V:2] d8z8z8 | 
[V:3] G8E4G8c4 | 
[V:4] G4B4c4d4e4c4 | 
[V:5] G,8z4G,4C,4C,4 | 
[V:1] e2d2d4c2A2c2d2e4d4- | 
[V:2] G4B4c2d2c2B2c4d4 | 
[V:3] B4G4A2F2A2GFE4F2D2- | 
[V:4] d8z8z8 | 
[V:5] G,8z8z8 | 
[V:1] d2B4A2G8z8 | 
[V:2] f2e2d2c2d8z8 | 
[V:3] D2G4A2B4G2B3AA3GG2- | 
[V:4] z8G4B4c2d2c2B2 | 
[V:5] z8G,6F,2G,2D,2F,2G,2 | 
[V:1] A4B2d3cB4A2A6B2 | 
[V:2] z8z8d8 | 
[V:3] G2F2G2_B2A2G3FE2F4A4- | 
[V:4] c4d4f2e2d2c2d8 | 
[V:5] A,4G,4D,2G,4A,2D,8 | 
[V:1] c4B2G2A3Bc2d2A2c2d4 | 
[V:2] e4d2c2d2d2e2d3cc4B2 | 
[V:3] A2G2F2G2D4G4C2G4F2 | 
[V:4] c2c2d2e2f4c2B2e4d4 | 
[V:5] z8z8z8 | 
[V:1] e3fg6fef2g2d2f2e2d2- | 
[V:2] c8z8z8 | 
[V:3] G4E4C2C2D2E2F4C2B,2 | 
[V:4] c8z8d4e2g2- | 
[V:5] C,8E,4D,2C,2D,4C,2G,2 | 
[V:1] dcc4B2!breath!c4c4B4d4 | 
[V:2] z8z8z8 | 
[V:3] E4D4C4E4D4G4- | 
[V:4] g2g4f2e4c4!breath!d4d4- | 
[V:5] C,4G,4z4C,4G,6A,2 | 
[V:1] d4e6d2c8B4 | 
[V:2] z8c8d8 | 
[V:3] G4A8G12 | 
[V:4] d2cBA4c4e4d8 | 
[V:5] B,4C4A,4C4G,8 | 
[V:1] c8!fermata!B8-B8 | 
[V:2] e8!fermata!d8-d8 | 
[V:3] E8!fermata!G8-G8 | 
[V:4] c8!fermata!d8-d8 | 
[V:5] C,8!fermata!G,8-G,8 | 
[V:1] c8-c8-c8 |]  
[V:2] [e8g8]-[e8g8]-[e8g8] |]  
[V:3] G8-G8-G8 |]  
[V:4] c8-c8-c8 |]  
[V:5] C,8-C,8-C,8 |]  



